picto/departure-left.svg

<svg class="color-immutable" width="24" height="24" viewBox="0 0 24 24" fill="none" xmlns="http://www.w3.org/2000/svg"><path d="M0 22.5V1.5C0 0.675 0.675 0 1.5 0H22.5C23.325 0 24 0.675 24 1.5V22.5C24 23.325 23.325 24 22.5 24H1.5C0.675 24 0 23.325 0 22.5Z" fill="#2D327D"/><path d="M3.18698 21.185H20.812C20.914 21.185 20.997 21.102 20.997 21C20.997 20.898 20.914 20.815 20.812 20.815H3.18698C3.08498 20.815 3.00198 20.898 3.00198 21C3.00198 21.102 3.08498 21.185 3.18698 21.185Z" fill="white"/><path d="M2.88099 8.80801C3.17799 8.62901 3.49999 8.49501 3.83599 8.41001C4.51699 8.23701 5.23399 8.26901 5.89699 8.50201L11.392 10.502L18.391 4.79001L19.849 5.19401L16.256 12.272L18.8 13.198L20.556 11.019L21.631 11.467L20.07 15.196H14.718L4.11299 11.336C3.59799 11.149 3.12399 10.863 2.71799 10.495V10.496C2.56299 10.356 2.45399 10.174 2.40299 9.97301C2.28699 9.52101 2.48199 9.04801 2.88099 8.80801Z" fill="white"/></svg>

<svg class="color-immutable" width="24" height="24" viewBox="0 0 24 24" fill="none" xmlns="http://www.w3.org/2000/svg"><g clip-path="url(#a)"><path d="M0 22.5v-21C0 .675.675 0 1.5 0h21c.825 0 1.5.675 1.5 1.5v21c0 .825-.675 1.5-1.5 1.5h-21C.675 24 0 23.325 0 22.5Z" fill="#2D327D"/><path d="M3.187 21.185h17.625a.185.185 0 0 0 0-.37H3.187a.185.185 0 0 0 0 .37ZM2.881 8.808a3.567 3.567 0 0 1 3.016-.306l5.495 2 6.999-5.712 1.458.404-3.593 7.078 2.544.926 1.756-2.179 1.075.448-1.561 3.729h-5.352l-10.605-3.86a4.226 4.226 0 0 1-1.395-.841v.001a1.054 1.054 0 0 1 .163-1.688Z" fill="#fff"/></g><defs><clipPath id="a"><path fill="#fff" d="M0 0h24v24H0z"/></clipPath></defs></svg>
